X:1
T:Delting Bridal March
M:3/4
L:1/8
K:Emin
D |:G3 G2A | B2d B>AG  | A3   A2G  |  A>Bc B2A  |!
    G3 G2A | B2d B>AG  | A>GA B>AG |1 E3   E2D :|2 E3   E2d ||!
  |:e3 e2d | e>fg d2B  | G3   G2A  |  B2A  B>cd |!
    e3 e2d | e>fg d>BG | A>GA B>AG |1 E3   E2d :|2 E3   E2D ||
